X: 1
T: McEvoy's
M: 4/4
L: 1/8
R: reel
K: Gmaj
G2 Bd ~g3e|=fdc_B AFFD|C=F F/F/F dFcF|_BAGA =F/E/D ^CE|
DGBd ~g3e|=fdc_B AFFD|C=F F/F/F dFcF|1 _BGAF DGGF:|2 _BGAF GA=Bd||
g2 b/a/g dgbg|e/f/g ag fdef|g2 bg dgbg|agfa ~g3a|
bgaf gfde|e/f/g ag fdcA|DGBd g2 ag|1 fdcA G/G/G Bd:|2 fdcA G3E||
